!!!SOCIAL_FUNCTION:	songs of social dance
!!!PDT:	1939
!!!OTL: No_81_Song_During_Feast.krn
!!!LANG: Non-Tone
!!!LING_GROUP: Wakashan
!!!REG: Pacific Northwest
**kern
*staff1
=1-
*clefF4
*k[b-e-a-d-g-]
*M2/4
8F\L
8F\J
4A-\
=2
[2A-\
=3
4..A-\]
16B-\
=4
4A-\
8r
16r
16B-\
=5
4..A-\
16A-\
=6
2G-\
=7
8F\
8r
12A-\L
12G-\
12A-\J
=8
4G-\
4r
=9
4B-\
8.A-\L
16A-\Jk
=10
4F\
8.E-\L
16E-\Jk
=11
8F\
8r
4E-\
=12
4F\
8F\L
8E-\J
=13
4E-\
4F\
=14
4E-\
4r
=15
4F\
8.A-\L
16B-\Jk
=16
[2A-\
=17
4..A-\]
16B-\
=18
4A-\
8F\
8r
=19!|:
4B-\
8.A-\L
16A-\Jk
=20
4F\
8.E-\L
16E-\Jk
=21
8F\
8r
4E-\
=22
4F\
8F\L
8E-\J
=23
4E-\
4F\
=24
2E-\
=25
2r
=26
4F\
4A-\
=27
[2A-\
=28
4..A-\]
16B-\
=29
4A-\
4F\
=30
4B-\
8.A-\L
16A-\Jk
=31
4F\
8.E-\L
16E-\Jk
=32
4D-\
8r
16r
16F\
=33
4F\
8.A-\L
16F\Jk
=34
4A-\
4r
=35
4F\
8.A-\L
16A-\Jk
=36
[2B-\
=37
4..B-\]
16c\
=38
4B-\
4r
=39
4..B-\
16B-\
=40
4.B-\
16B-\LL
16B-\JJ
=41
4B-\
4B-\
=42||
*M3/4
8.A-\L
16F\Jk
8F\
8r
8.B-\L
16B-\Jk
=43||
*M2/4
16B-\LK
[8.A-\J
8A-\]
8r
==:|!
*-
